X:2
T:Meilti Chean Dubhrann (The blue hills of Antrim)
M:4/4
L:1/8
K:Ador
|B,<D ~E2 E4| D<G E<D G,4 | G,>A, B,2 D4| A,2~A,2 A,4 |
|D/2B,/2D/2 ~E2 E4| D<G E<D G,4 | G,>A, B,2 D4| A,2~A,2 A,4 |
|~D2 B,<D E4| F/2G/2A/2 B2 E4| G<A B2 A4 | G>F G6 | 
| G2 E/2F/2G/2 A2 B2 | A2 G>F G>G,3 | G,>A, B,2 D4| A,2~A,2 A,4 | 

